X:1
T:Title
%%score 1 { 2 | 3 }
L:1/8
Q:1/4=108
M:4/4
K:Bb
V:1 treble nm="Grand Piano, Soprano"
V:2 bass nm="Choir Pad, The Word of Faith, Hickman"
V:3 bass 
V:1
 [DF]2 [DB]2- [DB][DA][DG][DF] | [EG][EA] [DB]2 [DB]2 [DB]2 | [DB]2 [Fd]2- [Fd][Ec] [DB]2 | %3
w: By~Roger~Mills~Hickman * * * * *|||
 [FB]2 [Fc]6 | [Fc]2 [Fc]2- [Fc][FB][FA][FG] | F[FG] [FA]2 [FB]2 [Fc]2 | %6
w: |||
 [Fd]2 [Fc]2- [Fc][FB] [FA]2 | [=EG]2 F6 | [EF]2 [DB]4 [DB]2 | [FA]2 [FA][EG] [EG][EG] [EG]2 | %10
w: ||||
 [EG][EG] [=Ec]2- [Ec][Ec] [Ec]2 | [GB]2 [GB][FA] [FA][FA] [FA]2 | [EF]2 [DB]4 [Gc]2- | %13
w: |||
 [Gc]2 [^Fd]6 | [Fe]2 [Fd]4 [Ec]2- | [Ec]2 [DB]6- | [DB]2 z2 z4 |] %17
w: ||||
V:2
 B,2 F,2- F,B,B,B, | B,B, F,2 G,2 F,2 | F,2 B,2- B,B, F,2 | B,2 A,6 | A,2 A,2- A,G,F,G, | %5
 A,B, C2 B,2 A,2 | B,2[K:treble] C2- CD C2 | B,2[K:bass] A,6 | F,2 F,4 F,2 | B,2 B,B, B,B, B,2 | %10
 B,B, B,2- B,B, B,2 | C2 CC CC C2 | C2[K:bass] B,4 B,2 | G,2 A,6 | A,2 B,2 B,2 A,2 | F,2 F,6- | %16
 F,2 z2 z4 |] %17
V:3
 B,,2 B,,2- B,,B,,B,,B,, | B,,B,, B,,2 B,,2 B,,2 | B,,2 B,,2- B,,B,, B,,2 | D,2 F,6 | %4
 F,2 F,2- F,F, z F, | F,F, E,2 D,2 C,2 | B,,2 A,,2- A,,B,, C,2 | C,2 F,6 | z2 B,,4 B,,2 | %9
 D,2 E,E, E,E, E,2 | E,E, C,2- C,C, C,2 | =E,2 F,F, F,F, F,2 | F,2 G,4 E,2- | E,2 D,6 | %14
 C,2 B,,2 D,2 F,2 | z2 B,,6- | B,,2 z2 z4 |] %17

